!!!COM: Bach, Johann Sebastian
!!!OPR: Das wohltemperirte Clavier, Band I
!!!XEN: The Well-Tempered Clavier, Volume I
!!!OTL: Prelude in E Major
!!!OMV: Prelude IX
!!!SCT: BWV 854
!!!SCA: Thematisch-systematisches Verzeichnis der musikalischen Werke Johann Sebastian Bach: Bach-Werke-Verzeichnis (Schmieder)
!!!YOR: Bach Gesellschaft Edition xiv
!!!ENC: Walter Hewlett
!!!CDT: 1685/3//-1750/7/28/
!!!OCY: Deutschland
!!!YEC: Copyright (c) 1994, 2000 Center for Computer Assisted Research in the Humanities
!!!YEM: Rights to all derivative editions reserved
!!!YEN: United States of America
**kern
*k[f#c#g#d#]
*E:
*M12/8
*MM92
=1-
*^
*^	*
8e/L	4r	[1.E\
8g#/	.	.
8b/J	8r	.
8ee\L	4.G#/	.
8dd#\	.	.
8ee\J	.	.
8cc#t\L	[4.A/	.
8b\	.	.
8cc#\J	.	.
4.ee\	8A/L]	.
.	8G#/	.
.	8F#/J	.
=2	=2	=2
8bT\L	[4.G#/	2.E\_
8a\	.	.
8b\J	.	.
4.ee\	8G#/L]	.
.	8A/	.
.	8G#/J	.
8a\L	2.F#/	4.E\]
8b\	.	.
8cc#\J	.	.
8b\L	.	4.D#\
8cc#\	.	.
8a\J	.	.
=3	=3	=3
8g#\L	8E/	8E\L
8b\	8ryy	8G#\
8ee\J	8ryy	8B\J
[4.gg#\	4ryy	8e\L
.	.	8d#\
.	8ryy	8e\J
8gg#\L]	8r	2.A#\
8ff#\	8r	.
8ee\J	8c#/	.
8dd#\L	4.f#/	.
8ee\	.	.
8cc#\J	.	.
=4	=4	=4
[2.dd#t\	2.ryy	8BB\L
.	.	8D#\
.	.	8F#\J
.	.	8B\L
.	.	8A#\
.	.	8B\J
8dd#\L]	8r	2.E\
8ee\	8r	.
8ff#\J	8B/	.
8gg#\L	[4.e/	.
8cc#\	.	.
8ee\J	.	.
=5	=5	=5
8f#/L	4.e/]	[1.F#\
8a#/	.	.
8cc#/J	.	.
8ff#\L	[2.d#/	.
8ee\	.	.
8ff#\J	.	.
8g#/L	.	.
8b/	.	.
8dd#/J	.	.
4.ee\	8d#/L]	.
.	8c#/	.
.	8B/J	.
=6	=6	=6
8f#/L	[2.A#/	4.F#\_
8a#/	.	.
8cc#/J	.	.
8ee\L	.	4F#\]
8dd#\	.	.
8ee\J	.	8C#\
8f#/L	4.A#/]	[4.Dn\
8a#/	.	.
8cc#/J	.	.
[4.ddn\	[4.B/	8D\L]
.	.	8E\
.	.	8F#\J
=7	=7	=7
8dd\L]	8B/L]	2.Gn\
8ee\	8c#/	.
8ddn\J	8dn/J	.
8cc#\L	[2.e/	.
8dd\	.	.
8b\J	.	.
8a#t/L	.	[4.F#\
8g#/	.	.
8f#/J	.	.
8ggn\L	8e/L]	8F#\L]
8ff#\	8d#/	8G#\
8ee#\J	8c#/J	8A#\J
=8	=8	=8
8een\L	[4.B/	4B\
8dd#\	.	.
8ddn\J	.	8E#\
16cc#\LL	8B/L]	4.F#\
16dd#\J	.	.
8ee\	8A#/	.
8a#\J	8e/J	.
[2.b/	2.d#/	8BB\L
.	.	8D#\
.	.	8F#\J
.	.	8B\L
.	.	8A\
.	.	8B\J
=9	=9	=9
8b\L]	2.ryy	[4.G#\
8dd#\	.	.
8ff#\J	.	.
8bb\L	.	8G#\L]
8aa\	.	8F#\
8bb\J	.	8G#\J
8cc#\L	8r	2.E#\
8ee#\	8G#/L	.
8gg#\J	8B/J	.
[4.bb\	8dn/L	.
.	8B/	.
.	[8c#/J	.
=10	=10	=10
8bb\L]	4.c#/]	4.F#\
8gg#\	.	.
[8aa\J	.	.
8aa\L]	4.B/	4.Dn\
8ff#\	.	.
[8gg#\J	.	.
8gg#\L]	4.B#/	4.D#\
8ee#\	.	.
8ff#\J	.	.
16ee#\LL	4.c#/	4.C#\
16ff#\J	.	.
8gg#\	.	.
8cc#\J	.	.
=11	=11	=11
*^	*	*
[2.ddn/	8r	8r	2.BB\
.	8b\L	8Dn/L	.
.	8g#\J	8E#/J	.
.	8e#\L	8G#/L	.
.	8g#\	8B/	.
.	8f#\J	8A/J	.
4.dd/_	8g#\L	8B\L	2.ryy
.	8b\	8G#\	.
.	8a\J	8F#\J	.
8dd/L]	[4.b\	16G#\LL	.
.	.	16A\J	.
8dd/	.	8B\	.
8cc#/J	.	8E#\J	.
=12	=12	=12	=12
*v	*v	*	*
[4.cc#/	8b\L]	4.F#\
.	8a\	.
.	8g#\J	.
8cc#/L]	[4.f#\	4.AA/
8b/	.	.
8a/J	.	.
8g#/L	4.f#\]	4.BB/
8a/	.	.
[8b/J	.	.
8b/L]	4.e#\	4.C#/
8a/	.	.
8g#/J	.	.
=13	=13	=13
[4.a/	[4.f#\	8FF#/L
.	.	8AA/
.	.	8C#/J
8a/L]	4f#\]	8F#\L
8b/	.	8E\
8g#/J	8e\	8F#\J
[4.a/	4.d#\	8BB/L
.	.	8D#/
.	.	8F#/J
8a/L]	4r	8B\L
16b/L	.	8A\
16a/	.	.
16g#/	8r	8B\J
16f#/JJ	.	.
=14	=14	=14
*v	*v	*
16g#/LL	8E\L
16f#/	.
16e/	8G#\
16f#/	.
16g#/	8B\J
16a/JJ	.
16b/LL	8e\L
16a/	.
16g#/	8dn\
16a/	.
16b/	8c#\J
16cc#/JJ	.
16ddn/LL	4B\
16cc#/	.
16b/	.
16a/	.
16g#/	8A\
16f#/JJ	.
8e/	16G#\LL
.	16dn\
8r	16c#\
.	16B\
8r	16A\
.	16G#\JJ
=15	=15
*^	*
8a\L	4.r	[1.A\
8cc#\	.	.
8ee\J	.	.
8aa\L	4.c#/	.
8gg#\	.	.
8aa\J	.	.
8ff#t\L	[4.dn/	.
8ee\	.	.
8ff#\J	.	.
4.aa\	8d/L]	.
.	8c#/	.
.	8B/J	.
=16	=16	=16
8eeT\L	[4.c#/	2.A\_
8ddn\	.	.
8ee\J	.	.
4.aa\	8c#/L]	.
.	8dn/	.
.	8c#/J	.
8ddn\L	2.B/	4.A\]
8ee\	.	.
8ff#\J	.	.
8ee\L	.	4.G#\
8ff#\	.	.
8dd\J	.	.
=17	=17	=17
8cc#\L	2.ryy	8AA/L
8a\	.	8C#/
8b\J	.	8E/J
[4.cc#\	.	8A\L
.	.	8G#\
.	.	8A\J
8cc#\L]	8r	2.D#\
8b\	8r	.
8a\J	8F#/	.
8g#/L	4.B/	.
8a/	.	.
8f#/J	.	.
=18	=18	=18
8g#/L	2.ryy	8EE/L
8e/	.	8GG#/
8f#/J	.	8BB/J
[4.g#/	.	8E\L
.	.	8D#\
.	.	8E\J
8g#/L]	8r	2.AA\
8a/	8r	.
8b/J	8E/	.
8cc#/L	[4.A/	.
8f#/	.	.
8a/J	.	.
=19	=19	=19
8B/L	4.A/]	[1.BB\
8d#/	.	.
8f#/J	.	.
8b\L	[2.G#/	.
8a\	.	.
8b\J	.	.
8c#/L	.	.
8e/	.	.
8g#/J	.	.
4.a/	8G#/L]	.
.	8F#/	.
.	8E/J	.
=20	=20	=20
8B/L	[2.D#/	4.BB\_
8d#/	.	.
8f#/J	.	.
8a/L	.	4BB\]
8g#/	.	.
8a/J	.	8FF#\
8B/L	4.D#/]	[4.GGn\
8d#/	.	.
8f#/J	.	.
[4.gn/	[4.E/	8GG\L]
.	.	8AA\
.	.	8BB\J
=21	=21	=21
8g/L]	8E/L]	2.Cn\
8a/	8F#/	.
8gn/J	8Gn/J	.
8f#/L	[2.A/	.
8g/	.	.
8e/J	.	.
8d#/L	.	[4.BB\
8c#/	.	.
8B/J	.	.
8ccn\L	8A/L]	8BB\L]
8b\	8G#/	8C#\
8a#\J	8F#/J	8D#\J
=22	=22	=22
8an/L	[4.E/	4E\
8g#/	.	.
8gn/J	.	8AA#\
16f#/LL	8E/L]	4.BB\
16g#/J	.	.
8a/	8D#/	.
8d#/J	8An/J	.
[2.e/	8G#/L	2.C#\
.	8E/	.
.	8G#/J	.
.	8A/L	.
.	8G#/	.
.	8A/J	.
=23	=23	=23
*^	*	*
2.e/_	8r	2.E/	2.GG#\
.	8G#\L	.	.
.	8B\J	.	.
.	8dn\L	.	.
.	8c#\	.	.
.	8d\J	.	.
4.e/_	[4.c#\	8AA/L	2.AA\
.	.	8C#/	.
.	.	8E/J	.
4e/]	4c#\]	8A/L	.
.	.	8G#/	.
8d#/	8cn\	8A/J	.
=24	=24	=24	=24
1.e/	1.B\	1.G#/	1.EE\
==|!;	==|!;	==|!;	==|!;
*-	*-	*-	*-
!!!END: 1994/01/12/
!!!KEY: 1197861189
!!!EMD: Converted from MuseData to Humdrum Dec 19, 2000, by Andreas Kornstaedt using muse2kern.
